img/air-conditioner.svg

<?xml version="1.0" encoding="UTF-8"?>
<svg width="48px" height="41px" viewBox="0 0 48 41" version="1.1" xmlns="http://www.w3.org/2000/svg" xmlns:xlink="http://www.w3.org/1999/xlink">
    <!-- Generator: Sketch 51.2 (57519) - http://www.bohemiancoding.com/sketch -->
    <title>air-conditioner</title>
    <desc>Created with Sketch.</desc>
    <defs></defs>
    <g id="Events" stroke="none" stroke-width="1" fill="none" fill-rule="evenodd">
        <g id="Assets" transform="translate(-46.000000, -245.000000)">
            <g id="Icon" transform="translate(44.000000, 239.000000)">
                <circle id="Oval" fill-opacity="0" fill="#D8D8D8" cx="26" cy="26" r="26"></circle>
                <g id="air-conditioner" transform="translate(2.000000, 6.000000)" fill="#333333" fill-rule="nonzero">
                    <path d="M36,13.0624687 C36,12.5097188 35.5527188,12.0624375 34.9999688,12.0624375 L4.99996875,12.0624375 C4.44721875,12.0624375 3.9999375,12.5097187 3.9999375,13.0624687 L3.9999375,17.0625 C3.9999375,17.61525 4.44721875,18.0625312 4.99996875,18.0625312 L34.9999688,18.0625312 C35.5527188,18.0625312 36,17.61525 36,17.0625 L36,13.0624687 Z M34.0000312,16.0624688 L6,16.0624688 L6,14.0625 L34.0000312,14.0625 L34.0000312,16.0624688 Z" id="Shape"></path>
                    <path d="M4.99996875,8.0625 L27,8.0625 C27.55275,8.0625 28.0000313,7.61521875 28.0000313,7.06246875 C28.0000313,6.50971875 27.55275,6.0624375 27,6.0624375 L4.99996875,6.0624375 C4.44721875,6.0624375 3.9999375,6.50971875 3.9999375,7.06246875 C4.00003125,7.61521875 4.4473125,8.0625 4.99996875,8.0625 Z" id="Shape"></path>
                    <circle id="Oval" cx="34.0000312" cy="6.06253125" r="1.99996875"></circle>
                    <path d="M28.0000313,25.0624688 C28.0000313,24.5097188 27.55275,24.0624375 27,24.0624375 C26.44725,24.0624375 25.9999688,24.5097188 25.9999688,25.0624688 C25.9999688,26.8651875 26.6474063,27.8369063 27.1679063,28.6171875 C27.6327188,29.3145 27.9999375,29.8652813 27.9999375,31.0624688 C27.9999375,31.6152188 28.4472188,32.0625 28.9999688,32.0625 C29.5527188,32.0625 30,31.6152187 30,31.0624688 C30,29.25975 29.3525625,28.2880312 28.8320625,27.50775 C28.3671563,26.8105313 28.0000313,26.25975 28.0000313,25.0624688 Z" id="Shape"></path>
                    <path d="M10.9999688,24.0625312 C10.4472187,24.0625312 9.9999375,24.5098125 9.9999375,25.0625625 C9.9999375,26.2598437 9.63271875,26.810625 9.16790625,27.5078437 C8.64740625,28.288125 7.99996875,29.2598437 7.99996875,31.0625625 C7.99996875,31.6152187 8.44725,32.0625 9,32.0625 C9.55275,32.0625 10.0000312,31.6152187 10.0000312,31.0624687 C10.0000312,29.8651875 10.36725,29.3144062 10.8320625,28.6171875 C11.3525625,27.8369062 12,26.8651875 12,25.0624687 C12,24.5098125 11.5527188,24.0625312 10.9999688,24.0625312 Z" id="Shape"></path>
                    <path d="M19.0000312,24.0625312 C18.4472812,24.0625312 18,24.5098125 18,25.0625625 L18,31.0625625 C18,31.6153125 18.4472812,32.0625937 19.0000312,32.0625937 C19.5527812,32.0625937 20.0000625,31.6153125 20.0000625,31.0625625 L20.0000625,25.0625625 C19.9999687,24.5098125 19.5527812,24.0625312 19.0000312,24.0625312 Z" id="Shape"></path>
                    <path d="M42,24.0625312 L40.9999688,24.0625312 L40.9999688,23.0625 C40.9999688,22.50975 40.5526875,22.0624688 39.9999375,22.0624688 C39.4471875,22.0624688 39,22.50975 39,23.0625 L39,24.0625312 L37.9999688,24.0625312 C37.4472187,24.0625312 36.9999375,24.5098125 36.9999375,25.0625625 C36.9999375,25.6153125 37.4472188,26.0625937 37.9999688,26.0625937 L39,26.0625937 L39,27.062625 C39,27.615375 39.4472813,28.0626562 40.0000312,28.0626562 C40.5527812,28.0626562 41.0000625,27.615375 41.0000625,27.062625 L41.0000625,26.0625 L42,26.0625 C42.55275,26.0625 43.0000312,25.6152187 43.0000312,25.0624688 C43.0000312,24.5098125 42.55275,24.0625312 42,24.0625312 Z" id="Shape"></path>
                    <path d="M42,32.0625 L37.9999688,32.0625 C37.4472187,32.0625 36.9999375,32.5097813 36.9999375,33.0625312 C36.9999375,33.6152812 37.4472188,34.0625625 37.9999688,34.0625625 L42,34.0625625 C42.55275,34.0625625 43.0000312,33.6152812 43.0000312,33.0625312 C43.0000312,32.5097813 42.55275,32.0625 42,32.0625 Z" id="Shape"></path>
                    <path d="M43.9999688,18.0625312 L39.9999375,18.0625312 L39.9999375,4.06246875 C39.9999375,1.8564375 38.2060313,0.0624375 35.9999063,0.0624375 L4.00003125,0.0624375 C1.79390625,0.06253125 0,1.8564375 0,4.06246875 L0,18.0624375 C0,20.2684687 1.79390625,22.0624687 4.00003125,22.0624687 L32.0000625,22.0624687 L32.0000625,32.0625 C32.0000625,36.473625 35.5889062,40.0624687 40.0000312,40.0624687 C44.4111562,40.0624687 48,36.473625 48,32.0625 L48,22.0624688 C48,19.8564375 46.2060938,18.0625312 43.9999688,18.0625312 Z M32.5562812,20.0625 L4.00003125,20.0625 C2.89753125,20.0625 2.0000625,19.1650312 2.0000625,18.0625312 L2.0000625,4.06246875 C1.99996875,2.95996875 2.8974375,2.0625 4.00003125,2.0625 L36,2.0625 C37.1025,2.0625 37.9999688,2.95996875 37.9999688,4.06246875 L37.9999688,18.0624375 L36,18.0624375 C34.5257813,18.0625312 33.2500312,18.8727188 32.5562812,20.0625 Z M46.0000312,32.0625 C46.0000312,35.371125 43.3086562,38.0625 40.0000312,38.0625 C36.6914062,38.0625 34.0000312,35.371125 34.0000312,32.0625 L34.0000312,22.0624688 C34.0000312,20.9599688 34.8975,20.0625 36,20.0625 L43.9999688,20.0625 C45.1024687,20.0625 45.9999375,20.9599687 45.9999375,22.0624687 L45.9999375,32.0625 L46.0000312,32.0625 Z" id="Shape"></path>
                </g>
            </g>
        </g>
    </g>
</svg>

<svg xmlns="http://www.w3.org/2000/svg" viewBox="0 0 48 41"><g transform="translate(-2 -6)" fill="none" fill-rule="evenodd"><circle fill="none" cx="26" cy="26" r="26"/><g transform="translate(2 6)" fill="#333" fill-rule="nonzero"><path d="M36 13c0-.5-.4-1-1-1H5a1 1 0 00-1 1v4c0 .6.4 1 1 1h30c.6 0 1-.4 1-1v-4zm-2 3H6v-2h28v2zM5 8h22a1 1 0 100-2H5a1 1 0 100 2z"/><circle cx="34" cy="6.1" r="2"/><path d="M28 25a1 1 0 10-2 0c0 1.9.6 2.8 1.2 3.6.4.7.8 1.3.8 2.5a1 1 0 102 0c0-1.8-.6-2.8-1.2-3.6-.4-.7-.8-1.2-.8-2.4zM11 24a1 1 0 00-1 1c0 1.3-.4 1.8-.8 2.5-.6.8-1.2 1.8-1.2 3.6a1 1 0 102 0c0-1.2.4-1.8.8-2.5.6-.8 1.2-1.7 1.2-3.5 0-.6-.4-1-1-1zM19 24a1 1 0 00-1 1v6a1 1 0 102 0v-6c0-.5-.4-1-1-1zM42 24h-1v-1a1 1 0 10-2 0v1h-1a1 1 0 100 2h1v1a1 1 0 102 0v-1h1a1 1 0 100-2zM42 32h-4a1 1 0 100 2h4a1 1 0 100-2z"/><path d="M44 18h-4V4a4 4 0 00-4-4H4a4 4 0 00-4 4v14a4 4 0 004 4h28v10a8 8 0 0016 0V22a4 4 0 00-4-4zm-11.4 2H4a2 2 0 01-2-2V4c0-1 .9-2 2-2h32a2 2 0 012 2v14h-2a4 4 0 00-3.4 2zM46 32a6 6 0 01-12 0V22c0-1 .9-2 2-2h8a2 2 0 012 2v10z"/></g></g></svg>
